images/four.svg

<svg height="250" viewBox="0 0 250 250" width="250" xmlns="http://www.w3.org/2000/svg"><path d="m.113281 0h249.773438v250h-249.773438zm0 0" fill="#22373d"/><path d="m45.539062 81.679688-18.433593-10.644532v107.933594l18.433593-10.644531zm0 0" fill="#ccc"/><path d="m222.894531 71.035156v107.933594l-18.441406-10.644531v-86.644531zm0 0" fill="#76bedd"/><path d="m47.476562 173.292969-18.433593 10.640625 93.46875 53.96875v-21.289063zm0 0" fill="#e6e6e6"/><path d="m202.523438 173.292969 18.433593 10.640625-93.472656 53.96875v-21.289063zm0 0" fill="#fff"/><path d="m127.484375 12.097656 93.472656 53.96875-18.433593 10.644532-75.039063-43.324219zm0 0" fill="#fff"/><path d="m122.515625 12.097656-93.472656 53.96875 18.433593 10.644532 75.039063-43.324219zm0 0" fill="#e6e6e6"/><g fill="#76bedd"><path d="m143.613281 149.339844v-48.675782l12.398438 7.117188v34.351562zm0 0"/><path d="m126.9375 137.175781v-24.347656l7.585938 4.347656v15.59375zm0 0"/><path d="m169.78125 164.097656v-78.195312l18.4375 10.582031v56.90625zm0 0"/></g></svg>

<svg xmlns="http://www.w3.org/2000/svg" width="250" height="250"><path fill="#22373d" d="M.113 0h249.774v250H.113zm0 0"/><path fill="#ccc" d="M45.54 81.68 27.104 71.035V178.97l18.434-10.645zm0 0"/><path fill="#76bedd" d="M222.895 71.035V178.97l-18.442-10.645V81.68zm0 0"/><path fill="#e6e6e6" d="m47.477 173.293-18.434 10.64 93.469 53.97v-21.29zm0 0"/><path fill="#fff" d="m202.523 173.293 18.434 10.64-93.473 53.97v-21.29zM127.484 12.098l93.473 53.968-18.434 10.645-75.039-43.324zm0 0"/><path fill="#e6e6e6" d="M122.516 12.098 29.043 66.066l18.434 10.645 75.039-43.324zm0 0"/><g fill="#76bedd"><path d="M143.613 149.34v-48.676l12.399 7.117v34.352zM126.938 137.176v-24.348l7.585 4.348v15.594zM169.781 164.098V85.902l18.438 10.582v56.907zm0 0"/></g></svg>
